src/components/icons/ballongPink.svg

<?xml version="1.0" encoding="UTF-8"?>
<svg width="43px" height="56px" viewBox="0 0 43 56" version="1.1" xmlns="http://www.w3.org/2000/svg" xmlns:xlink="http://www.w3.org/1999/xlink">
    <!-- Generator: Sketch 50.2 (55047) - http://www.bohemiancoding.com/sketch -->
    <title>Ballong_mintgron Copy</title>
    <desc>Created with Sketch.</desc>
    <defs></defs>
    <g id="Page-1" stroke="none" stroke-width="1" fill="none" fill-rule="evenodd">
        <g id="Event" transform="translate(-166.000000, -48.000000)" fill="#EC008C">
            <g id="Ballong_mintgron-Copy" transform="translate(166.000000, 48.000000)">
                <g id="Group-3">
                    <path d="M34.7275891,41.0660833 C33.0121159,43.5894611 30.9849319,45.6458309 28.7857363,47.0549102 C26.5834448,48.4649485 24.2257817,49.2332583 21.763054,49.234409 C19.3005199,49.2332583 16.9428568,48.4649485 14.7405653,47.0549102 C11.4409978,44.9444557 8.53208464,41.3639328 6.47413593,36.9617825 C4.41289791,32.5621255 3.20010904,27.3567597 3.20165695,22.0551155 C3.20494626,16.2321867 5.29965787,11.4219078 8.64624313,8.04046264 C11.9974721,4.66285324 16.6129581,2.70813205 21.763054,2.70583057 C26.9137305,2.70813205 31.5292164,4.66285324 34.8802519,8.04046264 C38.2268372,11.4219078 40.3213553,16.2321867 40.3248381,22.0551155 C40.3292883,29.1239105 38.1643402,36.0218209 34.7275891,41.0660833 Z M23.2006771,53.6693553 L20.6141165,53.6693553 L21.3143531,51.8327766 C21.4637266,51.8373796 21.6131001,51.8415989 21.763054,51.8415989 L21.7669238,51.8415989 C22.0111069,51.8415989 22.2539356,51.8331602 22.4959903,51.8206939 L23.2006771,53.6693553 Z M36.7565145,6.21347342 C32.9130495,2.3326077 27.5905549,0.0961473579 21.763054,0.0986406247 C15.9361336,0.0961473579 10.6134455,2.3326077 6.77017406,6.21347342 C2.92303283,10.0912705 0.56788506,15.6073357 0.571561351,22.0551155 C0.576011597,29.6476884 2.86053589,36.9915099 6.61828521,42.5234936 C8.499385,45.2879512 10.7550794,47.6028535 13.3124232,49.2436149 C15.0754947,50.3759416 16.990455,51.1829929 19.0031273,51.574244 L17.9288766,54.3916355 C17.7982715,54.7339802 17.8460633,55.1204366 18.0561923,55.4219301 C18.2659344,55.7228482 18.614021,55.903706 18.983198,55.903706 L24.8315956,55.903706 C25.2007726,55.903706 25.5486658,55.7228482 25.7587948,55.4219301 C25.9685368,55.1204366 26.0163286,54.7339802 25.8853366,54.3916355 L24.7899955,51.5178578 C26.7049559,51.1087703 28.5287829,50.3255009 30.2142654,49.2436149 C34.0488298,46.7798837 37.2094722,42.8113701 39.4380781,38.0590117 C41.6632013,33.3037765 42.9537728,27.7497369 42.9551272,22.0551155 C42.95861,15.6073357 40.6036557,10.0912705 36.7565145,6.21347342 Z" id="Fill-1"></path>
                </g>
                <path d="M8.12355604,18.9534617 C7.43060133,18.7376769 7.03956035,17.9868802 7.25022476,17.2762341 C8.04812584,14.5804071 9.4033616,12.3167432 11.1170355,10.5170858 C12.705314,8.8675483 14.6250223,7.59340911 16.7887695,6.79455034 C17.4699563,6.54276841 18.2211717,6.90471729 18.466561,7.60369399 C18.7119503,8.30187955 18.3589138,9.0722571 17.677727,9.32364345 C15.8836071,9.98682084 14.305939,11.033308 12.9887077,12.4004068 C11.5642151,13.8986378 10.4381637,15.7689048 9.75909893,18.0578854 C9.58721067,18.6381904 9.06730171,19.0118086 8.50514413,19.0118086 C8.37897699,19.0118086 8.25068777,18.9930189 8.12355604,18.9534617" id="Fill-4"></path>
            </g>
        </g>
    </g>
</svg>

<svg width="43" height="56" xmlns="http://www.w3.org/2000/svg"><g fill="#EC008C" fill-rule="evenodd"><path d="M34.728 41.066c-1.716 2.523-3.743 4.58-5.942 5.989-2.203 1.41-4.56 2.178-7.023 2.18-2.462-.002-4.82-.77-7.022-2.18-3.3-2.11-6.209-5.691-8.267-10.093-2.061-4.4-3.274-9.605-3.272-14.907C3.205 16.232 5.3 11.422 8.646 8.04c3.351-3.377 7.967-5.332 13.117-5.334 5.15.002 9.766 1.957 13.117 5.334 3.347 3.382 5.441 8.192 5.445 14.015.004 7.069-2.16 13.967-5.597 19.011zM23.2 53.67h-2.587l.7-1.836c.15.004.3.009.45.009h.003c.244 0 .487-.009.729-.021l.705 1.848zM36.757 6.213C32.913 2.333 27.59.096 21.763.1 15.936.096 10.613 2.333 6.77 6.213 2.923 10.091.568 15.607.572 22.055c.004 7.593 2.289 14.937 6.046 20.468 1.881 2.765 4.137 5.08 6.694 6.72 1.763 1.133 3.678 1.94 5.691 2.331l-1.074 2.818c-.13.342-.083.728.127 1.03.21.3.558.482.927.482h5.849c.369 0 .717-.181.927-.482.21-.302.257-.688.126-1.03l-1.095-2.874c1.915-.41 3.739-1.192 5.424-2.274 3.835-2.464 6.995-6.433 9.224-11.185 2.225-4.755 3.516-10.31 3.517-16.004.004-6.448-2.351-11.964-6.198-15.842z"/><path d="M8.124 18.953c-.693-.215-1.084-.966-.874-1.677.798-2.696 2.153-4.96 3.867-6.759a15.132 15.132 0 0 1 5.672-3.722 1.302 1.302 0 0 1 1.678.809c.245.698-.108 1.468-.79 1.72A12.492 12.492 0 0 0 12.99 12.4c-1.425 1.499-2.55 3.369-3.23 5.658-.172.58-.692.954-1.254.954-.126 0-.254-.019-.381-.059"/></g></svg>
